public/assets/icons/thrown.svg

<?xml version="1.0" standalone="no"?>
<!DOCTYPE svg PUBLIC "-//W3C//DTD SVG 1.1//EN" "http://www.w3.org/Graphics/SVG/1.1/DTD/svg11.dtd" >
<svg xmlns="http://www.w3.org/2000/svg" xmlns:xlink="http://www.w3.org/1999/xlink" version="1.1" viewBox="0 -64 1024 1024" width="512" height="512">
  <g transform="matrix(1 0 0 -1 0 960)">
   <path fill="currentColor"
d="M853 619q0 -71 -50 -121t-120 -50v0q-71 0 -121 50t-50 121v0q0 70 50 120t121 50v0q70 0 120 -50t50 -120v0v0zM147 142l100 101l60 -60l-101 -101l-59 60v0zM274 270l100 100l60 -60l-100 -100zM399 395l101 100l60 -59l-101 -101l-60 60v0z" />
  </g>

</svg>

<?xml version="1.0" encoding="UTF-8" standalone="no"?>
<svg
   version="1.1"
   viewBox="0 -64 1024 1024"
   width="512"
   height="512"
   id="svg1128"
   sodipodi:docname="thrown.svg"
   inkscape:version="1.2.2 (732a01da63, 2022-12-09)"
   xmlns:inkscape="http://www.inkscape.org/namespaces/inkscape"
   xmlns:sodipodi="http://sodipodi.sourceforge.net/DTD/sodipodi-0.dtd"
   xmlns="http://www.w3.org/2000/svg"
   xmlns:svg="http://www.w3.org/2000/svg">
  <defs
     id="defs1132" />
  <sodipodi:namedview
     id="namedview1130"
     pagecolor="#ffffff"
     bordercolor="#000000"
     borderopacity="0.25"
     inkscape:showpageshadow="2"
     inkscape:pageopacity="0.0"
     inkscape:pagecheckerboard="0"
     inkscape:deskcolor="#d1d1d1"
     showgrid="false"
     inkscape:zoom="1.6191406"
     inkscape:cx="236.23643"
     inkscape:cy="256.30881"
     inkscape:window-width="1920"
     inkscape:window-height="1009"
     inkscape:window-x="-8"
     inkscape:window-y="-8"
     inkscape:window-maximized="1"
     inkscape:current-layer="svg1128" />
  <g
     transform="matrix(1,0,0,-1,12,883.5)"
     id="g1126">
    <path
       fill="currentColor"
       d="m 853,619 q 0,-71 -50,-121 -50,-50 -120,-50 v 0 q -71,0 -121,50 -50,50 -50,121 v 0 q 0,70 50,120 50,50 121,50 v 0 q 70,0 120,-50 50,-50 50,-120 z M 147,142 247,243 307,183 206,82 Z M 274,270 374,370 434,310 334,210 Z M 399,395 500,495 560,436 459,335 Z"
       id="path1124" />
  </g>
</svg>
